!!!!SEGMENT: pl-wn--sd-xvi-o-285_anonim--kancjonal-zamoyskich-piesn-przy-pogrzebie-czlowieka-krzescianskiego-nuz-my-wierni-krzescianie.krn
!!!cenid: 15xx:840
!!!COM: Anonim
!!!COM-rismid: pe30004985
!!!CDT:
!!!CNT:
!!!GTL: Kancjonał Zamoyskich
!!!OTL: Pieśń przy pogrzebie człowieka krześciańskiego/Nuż my wierni krześcianie
!!!PDT: 1558
!!!AGN:
!!!SMS-siglum: PL-Wn
!!!SMS-shelfmark: SD XVI.O.285
!!!SMS-shelfwork: G
!!!SMS-variant:
!!!SMS-altvar:
!!!NIFC-rismid: 990072144
!!!URL-scan: https://polona.pl/item/piesn-przy-pogrzebie-czlowieka-krzescianskiego-przylozon-tesz-iest-psalm-pierwssy,MTE3MTgyNQ/3/#info:metadata
!!!ONB-nifc: UWAGA: proszę zapisywać tylko teksty występujące bezpośrednio pod nutami
!!!AIN: 1 soprn 1 tenor
!!!key: d
**kern	**text	**kern	**text
*part2	*part2	*part1	*part1
*staff2	*staff2	*staff1	*staff1
*ICvox	*	*ICvox	*
*Itenor	*	*Isoprn	*
*I"TENOR.	*	*I"CANTVS.	*
*I'T	*	*I'S	*
*clefC4	*	*clefC3	*
*k[b-]	*	*k[b-]	*
*d:	*	*d:	*
*M2/1	*	*M2/1	*
=1-	=1-	=1-	=1-
1F	Nuſz	1d	Nuſz
1G	my	1c	my
=2-	=2-	=2-	=2-
1F	wie-	1B-	wier-
1E	-ni	1A	-ni
=3-	=3-	=3-	=3-
1F	krze-	1B-	krze.-
1G	ſci-	1c	-[ſci-
=4-	=4-	=4-	=4-
1A	-á.-	1d	-á-
1F	-[nie]	1B-	-nie]
=5-	=5-	=5-	=5-
1F	przes	1d	przes
1G	ża-	1c	żá-
=6-	=6-	=6-	=6-
1A	-ł.[o-	1A	-ło-
1B-	ſne]	1B-	ſne
=7-	=7-	=7-	=7-
1A	ro.[z-	1A	roz-
1F	-my-	2A/	.
.	.	1d\	.
=8-	=8-	=8-	=8-
1G	-ſla-	.	.
.	.	2c/	-my-
!LO:SIC:v:t=custos F	!	!LO:SIC:v:t=custos B-	!
1A	-nie]	1d	-ſlá.-
=9-	=9-	=9-	=9-
!LO:LB:g=original	!	!LO:LB:g=original	!
1F	ſmier-	1B-	-[nie]
1G	ći	1B-	ſmier-
=10-	=10-	=10-	=10-
1G	czło.-	1c	-ći
1A	-[wie-	1d	czło-
=11-	=11-	=11-	=11-
1G	-ka]	2c/	-wie.-
.	.	2.c/	-[ka]
1F	grze-	.	.
.	.	4B-/	grze.-
.	.	1B-/	-[ſſne]-
=12-	=12-	=12-	=12-
1E	-ſſ.[ne-	.	.
.	.	2A/	.
1D	-go]	1B-	-[go]
=13-	=13-	=13-	=13-
1G	bądz-	1c	bądz.-
1A	-myſz	1d	-[my]
=14-	=14-	=14-	=14-
1G	ſer-	1e	ſer.-
1F	-cá	1f	.
=15-	=15-	=15-	=15-
1C	na.-	2e\	[ca]
.	.	2.e\	n.[a-
1F	-[boż-	.	.
.	.	4d\	-boż-
.	.	1d\	-ne-
=16-	=16-	=16-	=16-
1G	-ne-	.	.
.	.	2c/	.
2Fl/	-go]	2dl\	-go]
==	==	==	==
*-	*-	*-	*-
!!!system-decoration: [(s1,s2)]
!!!ENC: Marta Opryszak
!!!END: 2022-05-18
!!!ENC: Krzysztof Stępień
!!!END: 2022-06-02
!!!RDF**kern: l = terminal long
